X: 9778
T: Den Trasiga Rocken
R: waltz
M: 3/4
K: Dminor
|:D|F>A "Dm"f2 e>f|d>c "Am"A3 f|e>f "Bb"d2 c>A|"C"c2 "Dm"d3D|
F>A "Dm"f2 e>f|d>c "Am"A3 f|(3gaf "Gm"d2 c>A|"C"c2 "Dm"d3:|
|:f|"Dm"af- f>a f>a|"C"a<g e3 f|"Bb"a>f d>e f>a|"A7"e<^c A3f|
"Gm"e>^c d2 f>a|"A7"e<^c A3 f|"Gm"(3gaf d2 c>A|"Am"c2 "Dm"d3:|

